svg/UnitedNationsOCHA-Humanitarian/food_NFI_kitchen_set_icon.svg

<svg xmlns="http://www.w3.org/2000/svg" viewBox="0 0 32 32" enable-background="new 0 0 32 32"><path fill="#407cca" d="m5.815 18.625h6.619l-1.427 9.166h-3.876l-1.316-9.166m16.01-3.584c1.265-.003 2.406-.511 3.233-1.337.834-.831 1.344-1.97 1.34-3.234 0-1.264-.511-2.406-1.34-3.233-.828-.831-1.969-1.34-3.233-1.34-1.263 0-2.403.506-3.232 1.34-.83.827-1.341 1.966-1.341 3.233 0 1.264.51 2.406 1.341 3.234.826.826 1.969 1.337 3.232 1.337m-10.515-3.457h-6.177c-.626 0-1.131-.503-1.131-1.128 0-.626.505-1.133 1.131-1.133h6.176c.333 0 .627.15.833.378h3.298c.376-3.131 3.01-5.567 6.241-5.564 3.492-.003 6.318 2.826 6.32 6.318 0 3.489-2.828 6.315-6.32 6.315-3.229 0-5.866-2.434-6.241-5.563h-3.298c-.205.229-.499.377-.832.377m5.375-1.118c0 1.42.577 2.708 1.507 3.637.926.927 2.212 1.506 3.634 1.506 1.421-.003 2.706-.58 3.633-1.506.933-.933 1.507-2.217 1.507-3.634 0-1.419-.577-2.703-1.507-3.634-.93-.93-2.216-1.506-3.633-1.506s-2.701.577-3.634 1.506c-.929.931-1.507 2.215-1.507 3.631m-1.297 17c.271.264.605.396 1 .396h10.06c.398 0 .731-.133 1-.396.269-.261.403-.589.403-.986h-12.881c0 .397.136.725.408.986m11.39-7.18c.218.212.388.467.516.761.127.299.189.609.189.943 0 .335-.063.646-.189.935-.128.284-.298.533-.516.747-.212.216-.47.388-.761.514-.297.129-.609.192-.943.192h-.238v.525c0 .349-.115.636-.348.857-.23.222-.512.335-.846.335h-5.396c-.334 0-.615-.113-.845-.335-.231-.222-.346-.509-.346-.857v-5.322h8.02c.334 0 .646.063.943.192.293.125.55.299.762.513m-.25 1.704c0-.409-.138-.758-.414-1.039-.282-.277-.628-.417-1.04-.417h-.238v2.89h.238c.412 0 .758-.14 1.04-.421.277-.278.414-.615.414-1.013"/></svg>

<?xml version="1.0" encoding="utf-8"?>
<!-- Generator: Adobe Illustrator 16.0.3, SVG Export Plug-In . SVG Version: 6.00 Build 0)  -->
<!DOCTYPE svg PUBLIC "-//W3C//DTD SVG 1.1//EN" "http://www.w3.org/Graphics/SVG/1.1/DTD/svg11.dtd">
<svg version="1.1" id="Layer_1" xmlns="http://www.w3.org/2000/svg" xmlns:xlink="http://www.w3.org/1999/xlink" x="0px" y="0px"
	 width="32px" height="32px" viewBox="0 0 32 32" enable-background="new 0 0 32 32" xml:space="preserve">
<path fill="#407CCA" d="M5.815,18.625h6.619l-1.427,9.166H7.131L5.815,18.625z M21.823,15.041c1.265-0.003,2.406-0.511,3.233-1.337
	c0.834-0.831,1.344-1.97,1.34-3.234c0-1.264-0.511-2.406-1.34-3.233c-0.828-0.831-1.969-1.34-3.233-1.34
	c-1.263,0-2.403,0.506-3.232,1.34c-0.83,0.827-1.341,1.966-1.341,3.233c0,1.264,0.51,2.406,1.341,3.234
	C19.417,14.53,20.56,15.041,21.823,15.041z M11.308,11.584H5.131C4.505,11.584,4,11.081,4,10.456C4,9.83,4.505,9.323,5.131,9.323
	h6.176c0.333,0,0.627,0.15,0.833,0.378h3.298c0.376-3.131,3.012-5.567,6.241-5.564c3.492-0.003,6.318,2.826,6.32,6.318
	c0,3.489-2.828,6.315-6.32,6.315c-3.229,0-5.866-2.434-6.241-5.563h-3.298C11.935,11.436,11.641,11.584,11.308,11.584z
	 M16.683,10.466c0,1.42,0.577,2.708,1.507,3.637c0.926,0.927,2.212,1.506,3.634,1.506c1.421-0.003,2.706-0.58,3.633-1.506
	c0.933-0.933,1.507-2.217,1.507-3.634c0-1.419-0.577-2.703-1.507-3.634c-0.93-0.93-2.216-1.506-3.633-1.506
	s-2.701,0.577-3.634,1.506C17.261,7.766,16.683,9.05,16.683,10.466z M15.386,27.466c0.271,0.264,0.605,0.396,1.002,0.396h10.065
	c0.398,0,0.731-0.133,1.003-0.396c0.269-0.261,0.403-0.589,0.403-0.986H14.978C14.978,26.877,15.114,27.205,15.386,27.466z
	 M26.776,20.286c0.218,0.212,0.388,0.467,0.516,0.761c0.127,0.299,0.189,0.609,0.189,0.943c0,0.335-0.063,0.646-0.189,0.935
	c-0.128,0.284-0.298,0.533-0.516,0.747c-0.212,0.216-0.47,0.388-0.761,0.514c-0.297,0.129-0.609,0.192-0.943,0.192h-0.238v0.525
	c0,0.349-0.115,0.636-0.348,0.857c-0.23,0.222-0.512,0.335-0.846,0.335h-5.396c-0.334,0-0.615-0.113-0.845-0.335
	c-0.231-0.222-0.346-0.509-0.346-0.857v-5.322h8.018c0.334,0,0.646,0.063,0.943,0.192C26.307,19.898,26.564,20.072,26.776,20.286z
	 M26.526,21.99c0-0.409-0.138-0.758-0.414-1.039c-0.282-0.277-0.628-0.417-1.04-0.417h-0.238v2.89h0.238
	c0.412,0,0.758-0.14,1.04-0.421C26.389,22.725,26.526,22.388,26.526,21.99z"/>
</svg>
